public/images/symbol.svg

<?xml version="1.0" encoding="UTF-8" standalone="no"?>
<svg
   width="48"
   height="48"
   viewBox="0 0 48 48"
   fill="#000000"
   version="1.1"
   id="svg1"
   xmlns="http://www.w3.org/2000/svg"
   xmlns:svg="http://www.w3.org/2000/svg">
  <defs
     id="defs1" />
  <path
     d="m 23.999956,0 c 13.2549,0 24,10.7452 24,24 0,13.2548 -10.7451,24 -24,24 C 10.745156,48 0,37.2548 0,24 0,10.7452 10.745156,0 23.999956,0 Z m -10.5,6 c -0.8284,0 -1.5,0.67157 -1.5,1.5 v 33 c 0,0.8284 0.6716,1.5 1.5,1.5 h 3 c 0.8285,0 1.5,-0.6716 1.5,-1.5 v -9 c 0,-0.8284 0.6716,-1.5 1.5,-1.5 h 3 c 0.8285,0 2.1742,-0.0129 2.9942,-0.1289 3.0368,-0.4297 9.7078,-2.2951 10.4414,-10.377 0.0748,-0.8236 0.075,-2.1694 0,-2.9941 -0.7347,-8.08189 -7.4057,-9.94192 -10.4414,-10.37109 C 24.675156,6.01313 23.328456,6 22.499956,6 Z m 6,6 h 3 c 0.8285,0 2.1784,0.0122 2.9825,0.2051 1.538,0.369 3.7975,1.4051 4.3769,4.3066 0.1619,0.8107 0.1621,2.1655 0,2.9766 -0.5798,2.9014 -2.839,3.9378 -4.3769,4.3066 -0.8037,0.1927 -2.154,0.2051 -2.9825,0.2051 h -3 c -0.8284,0 -1.5,-0.6716 -1.5,-1.5 v -9 c 0,-0.8284 0.6716,-1.5 1.5,-1.5 z m 1.5,3 v 4.5 c 0,0.8284 0.6716,1.5 1.5,1.5 v -4.5 c 0,-0.8284 -0.6715,-1.5 -1.5,-1.5 z m 4.5,0 v 4.5 c 0,0.8284 0.6716,1.5 1.5,1.5 v -4.5 c 0,-0.8284 -0.6715,-1.5 -1.5,-1.5 z m 3,15 c -0.6468,0 -1.1711,0.5243 -1.1711,1.1712 0,0.095 0.0115,0.1897 0.0344,0.2819 l 2.2735,9.0938 c 0.2145,0.8542 0.9825,1.4531 1.8632,1.4531 h 3 c 0.6469,0 1.1712,-0.5243 1.1712,-1.1712 0,-0.095 -0.0116,-0.1897 -0.0344,-0.2819 l -2.2735,-9.0938 C 33.148756,30.5989 32.380756,30 31.499956,30 Z"
     id="path1" />
</svg>

<svg width="48" height="48" viewBox="0 0 48 48" fill="#000000" xmlns="http://www.w3.org/2000/svg">
<path d="M24.1122 0C37.3671 0 48.1122 10.7452 48.1122 24C48.1122 37.2548 37.3671 48 24.1122 48C10.8574 48 0.112244 37.2548 0.112244 24C0.112244 10.7452 10.8574 0 24.1122 0ZM13.6122 6C12.7838 6 12.1122 6.67157 12.1122 7.5V40.5C12.1122 41.3284 12.7838 42 13.6122 42H16.6122C17.4407 42 18.1122 41.3284 18.1122 40.5V31.5C18.1122 30.6716 18.7838 30 19.6122 30H22.6122C23.4407 30 24.7864 29.9871 25.6064 29.8711C28.6432 29.4414 35.3142 27.576 36.0478 19.4941C36.1226 18.6705 36.1228 17.3247 36.0478 16.5C35.3131 8.41811 28.6421 6.55808 25.6064 6.12891C24.7874 6.01313 23.4407 6 22.6122 6H13.6122ZM19.6122 12H22.6122C23.4407 12 24.7906 12.0122 25.5947 12.2051C27.1327 12.5741 29.3922 13.6102 29.9716 16.5117C30.1335 17.3224 30.1337 18.6772 29.9716 19.4883C29.3918 22.3897 27.1326 23.4261 25.5947 23.7949C24.791 23.9876 23.4407 24 22.6122 24H19.6122C18.7838 24 18.1122 23.3284 18.1122 22.5V13.5C18.1122 12.6716 18.7838 12 19.6122 12ZM21.1122 15V19.5C21.1122 20.3284 21.7838 21 22.6122 21V16.5C22.6122 15.6716 21.9407 15 21.1122 15ZM25.6122 15V19.5C25.6122 20.3284 26.2838 21 27.1122 21V16.5C27.1122 15.6716 26.4407 15 25.6122 15ZM28.6122 30C27.9654 30 27.4411 30.5243 27.4411 31.1712C27.4411 31.2662 27.4526 31.3609 27.4755 31.4531L29.749 40.5469C29.9635 41.4011 30.7315 42 31.6122 42H34.6122C35.2591 42 35.7834 41.4757 35.7834 40.8288C35.7834 40.7338 35.7718 40.6391 35.749 40.5469L33.4755 31.4531C33.261 30.5989 32.493 30 31.6122 30H28.6122Z" />
</svg>
